X: 2
T: The Crooked Road To Dublin
R: reel
M: 4/4
L: 1/8
K: Gmaj
F|G2(3GGG FGAF|G2FG AdcA|GBAG FGAg|fdce (3dcB cA|G2(3GGG FGAF|G2FG AdcA|GBAG FGAg|fdce d2cA||dg~g2 fgaf|dg~g2 agfd|dg~g2 fgag|fdce d2cA|dg~g2 fgaf|dg~g2 a2ga|(3bag gf gbag|fdcA d2cA||


Tune 227	Setting 27499

